/* XPM */
static char * kcts_3_xpm[] = {
"64 64 166 2",
"  	c None",
". 	c #FEFFFC",
"+ 	c #DC5205",
"@ 	c #746215",
"# 	c #1E0100",
"$ 	c #000200",
"% 	c #7E191F",
"& 	c #FEF200",
"* 	c #665820",
"= 	c #C4312F",
"- 	c #5D0500",
"; 	c #5B0D01",
"> 	c #751600",
", 	c #FCF600",
"' 	c #FDF816",
") 	c #FDFE1E",
"! 	c #791C1D",
"~ 	c #6B0B00",
"{ 	c #F8F900",
"] 	c #FFF031",
"^ 	c #6E6212",
"/ 	c #FCF43E",
"( 	c #800D00",
"_ 	c #70641E",
": 	c #801A1B",
"< 	c #FFE635",
"[ 	c #DF1F1A",
"} 	c #6F5F21",
"| 	c #781C22",
"1 	c #791101",
"2 	c #FCF837",
"3 	c #601307",
"4 	c #FEEF3B",
"5 	c #6D621B",
"6 	c #752122",
"7 	c #FDF100",
"8 	c #9D6E5D",
"9 	c #FFF636",
"0 	c #6A6917",
"a 	c #7A1D19",
"b 	c #7A1202",
"c 	c #FFF900",
"d 	c #802102",
"e 	c #603637",
"f 	c #706E13",
"g 	c #0A0301",
"h 	c #711C1A",
"i 	c #FFF300",
"j 	c #802111",
"k 	c #020501",
"l 	c #040006",
"m 	c #75201C",
"n 	c #F6F320",
"o 	c #6D671E",
"p 	c #6F211A",
"q 	c #716B22",
"r 	c #731E1B",
"s 	c #670501",
"t 	c #72661F",
"u 	c #100101",
"v 	c #070000",
"w 	c #7A1D1E",
"x 	c #F6F200",
"y 	c #FFF72A",
"z 	c #75191B",
"A 	c #FAFB00",
"B 	c #716416",
"C 	c #CB3628",
"D 	c #6C6615",
"E 	c #D25929",
"F 	c #811B1B",
"G 	c #7F1700",
"H 	c #FFF30D",
"I 	c #F8F407",
"J 	c #F7F302",
"K 	c #D7562A",
"L 	c #735D19",
"M 	c #7C171D",
"N 	c #FDEB00",
"O 	c #821D21",
"P 	c #831100",
"Q 	c #780F00",
"R 	c #770E00",
"S 	c #750C05",
"T 	c #7C0702",
"U 	c #7E0B04",
"V 	c #7B0600",
"W 	c #780206",
"X 	c #695418",
"Y 	c #6A1300",
"Z 	c #661003",
"` 	c #6B0C05",
" .	c #D64D0C",
"..	c #0F0000",
"+.	c #090100",
"@.	c #DD5314",
"#.	c #DD4C03",
"$.	c #000407",
"%.	c #00010E",
"&.	c #160003",
"*.	c #030410",
"=.	c #DC5915",
"-.	c #000610",
";.	c #D84F01",
">.	c #D74E00",
",.	c #00070A",
"'.	c #000516",
").	c #0E0705",
"!.	c #0B0403",
"~.	c #0C0008",
"{.	c #0B0D0A",
"].	c #05221B",
"^.	c #00ABCD",
"/.	c #00A9CB",
"(.	c #00AAC5",
"_.	c #21AAC6",
":.	c #00AFC4",
"<.	c #00ABC6",
"[.	c #00A9C4",
"}.	c #00AECA",
"|.	c #0B1410",
"1.	c #FBF8FD",
"2.	c #102E31",
"3.	c #07A9D2",
"4.	c #060C0F",
"5.	c #FFFDEE",
"6.	c #002E3A",
"7.	c #21A6C9",
"8.	c #0C141A",
"9.	c #062935",
"0.	c #1FA9C5",
"a.	c #011111",
"b.	c #00292B",
"c.	c #020717",
"d.	c #040E15",
"e.	c #020D14",
"f.	c #02080C",
"g.	c #002224",
"h.	c #001B19",
"i.	c #001615",
"j.	c #11160D",
"k.	c #14A9BE",
"l.	c #10A8BD",
"m.	c #DB5F17",
"n.	c #DB5807",
"o.	c #DB5814",
"p.	c #D95603",
"q.	c #07A6BB",
"r.	c #00A8B7",
"s.	c #FAF9EF",
"t.	c #1DACC2",
"u.	c #28A8B8",
"v.	c #1DA6B0",
"w.	c #14A5C1",
"x.	c #FDF7F6",
"y.	c #000A17",
"z.	c #010B14",
"A.	c #FFFEF5",
"B.	c #FFFFE8",
"C.	c #F5FFFA",
"D.	c #010D07",
"E.	c #3DADCB",
"F.	c #FCFBF2",
"G.	c #FCF3EC",
"H.	c #FFF8F1",
"I.	c #FEF0DC",
"                                                              + +                                                               ",
"                                                            + + + +                                                             ",
"                                                          + + + + + +                                                           ",
"                                                        + + + + + + + +                                                         ",
"                                                      + + + + + + + + + +                                                       ",
"                            + + + + + + + +         @ @ @ @ # $ $ $ % % % %       + + + + + + + +                               ",
"                            + + + + + + + @ @ @ @ @ @ & & * + + + + % = = - ; > > > + + + + + + +                               ",
"                            + + + + + @ @ @ & & , ' ) , , @ + + + + ! = = = = = = > > ~ + + + + +                               ",
"                            + + + @ @ { , { ] & & & & & & ^ + + + + % = = = = = = = = = - > + + +                               ",
"                            + + @ , { / ( ( ( ( ( ( ( ( & _ + + + + : = ( ( ( ( ( ( ( = = = > + +                               ",
"                            + @ , < ( ( [ [ [ [ [ [ [ ( & } + + + + | = 1 , 2 , , , , ( ( = = 3 +                               ",
"                            @ , 4 ( [ [ [ [ [ [ [ [ [ ( & 5 + + + + 6 = > , 7 , ' , , , , ( = = > 8                             ",
"                          @ , 9 ( [ [ [ [ [ [ [ [ [ [ ( & 0 $ $ $ $ a = b , 7 c 7 , , , , , ( = = d e                           ",
"                        @ 7 ] ( [ [ [ [ [ [ [ [ [ [ [ ( & f g $ $ $ h = ( , 7 , , , i , , , , ( = = > j                         ",
"            + + + + + @ , 9 ( [ [ [ [ [ [ [ [ [ [ [ [ ( & 0 k l $ $ m = ( , 7 , { , , 7 i , , , ( = = ~ ~ + + + + +             ",
"            + + + + @ , n ( [ [ [ [ [ [ [ [ [ [ [ [ [ ( & o g l $ $ p = > , 7 & , { , , , , , , , ( = = ~ ~ + + + +             ",
"            + + + @ , , ( [ [ [ [ [ [ [ [ [ [ [ [ [ [ ( & q g l $ $ r = > , 7 7 7 7 , , & , , , , , ( = = s ~ + + +             ",
"            + + + @ , ( [ [ [ [ [ [ [ [ [ [ [ [ [ [ [ ( & t u v $ $ w = > , c 7 7 7 , , 7 7 x , , , , ( = = s + + +             ",
"            + + @ , y ( [ [ [ [ [ [ [ [ [ [ [ [ [ [ [ ( & @ $ $ $ $ z = > , A 7 i 7 , { 7 7 i , , , , 7 ~ = = ~ + +             ",
"            + + @ & ( [ [ [ [ [ [ [ [ [ [ [ [ [ [ [ [ ( & B + + + + : = b , c 7 i & i , { c 7 , , , , , ( = C - + +             ",
"            + @ & & ( [ [ [ [ [ [ [ [ [ [ [ [ [ [ [ [ ( & D + E + + F = G , c & 7 7 H I , , i 7 H J , , 7 ~ = = ~ +             ",
"            @ & & ( [ [ [ [ [ [ [ [ [ [ [ [ [ [ [ [ [ ( & _ + K + + % = b , , , 7 7 7 7 7 7 7 7 7 7 , , , 7 ~ = = ~             ",
"            @ & H ( [ [ [ [ [ [ [ [ [ [ [ [ [ [ [ [ [ ( & L + E + + M = ( , , , , , , , , , , , , , , , , 7 ~ = = ~             ",
"          + @ & N ( ( ( ( ( ( ( ( ( ( ( ( ( ( ( ( ( ( ( & @ + + + + O = ( P Q R S b Q T T T U T T V W V ( ( ~ = = ~ +           ",
"        + + @ & & & & & & & & & & & & & & & & & & , & & & X + + + + % = = = = = = = = = = = = = ~ ~ ~ = = = = = = ~ + +         ",
"      + + + @ @ @ @ @ @ @ @ @ @ @ @ @ @ @ @ @ @ @ @ @ @ @ @ + + + + % % ~ Y Z ` ~ ~ ~ ~ ~ ~ ~ ~ ~ ~ ~ ~ ~ ~ ~ ~ ~ ~ + + +       ",
"    + + + $ $ $ $ $ + + + + + + v v v $ $ v + + + + + +  .v $ l l l v  .+ + + + + + ..+...v ..$ + + + + + + $ $ $ u $ + + +     ",
"  + + + + $ $ $ $ $ + + @.+ + + $ v v $ $ v + + + + + + #.v $.l %.l $ + + + + + + #.$ l l l v $ + + + + + + $ $ $ $ $ + + + +   ",
"+ + + + + &.$.*.l $ + + + + + =.%.l $.-.-.l ;.+  .#.>.;. .$ k $.-.-.$ ;.;.;.;.#.;.;.$.,.*.'.$.).+ + + + + + !.$ $ ~.$ + + + + + ",
"+ + + + + {.$ $ $ $ $ $ $ $ $ $ $ $ $ $ $ $ $ $ $ $ $ $ $ $ $ $ $ $ $ $ $ $ $ $ $ $ $ $ $ $ $ $ $ $ $ $ $ $ $ $ $ $ $ + + + + + ",
"  + + + + ].^.^.^.^.^.^.^.^.^.^.^.^.^.^.^.^.^.^.^.^.^.^.^.^.^./.(._.^.^.^.^./.^.^.^.^.^.:.<.[.^.^.^.}.^.^.^.^.^.^.^.|.+ + + +   ",
"    + + + 2.^.^.^.^.^.^.^.^.^.^.^.^.^.^.^.^.^.^.^.^.^.^.^.^.^.^.^.^.^.^.^.^.3.^.^.^.^.^.^.^.^.^.^.^.^.^.^.^.^.^.^.^.4.+ + +     ",
"      + + 6.^.^.^.^.^.^.^.^.^.^.^.^.^.^.^.^.^.^.^.^.^.^.^.^.^.^.^.^.^.^.^.^.7.^.^.^.^.^.^.^.^.^.^.^.^.^.^.^.^.^.^.^.8.+ +       ",
"        + 9.^.^.^.0.0.0.0.0.0.0.0.0.0.0.0.0.^.^.^.0.0.0.^.^.^.^.^.^.^.^.^.^.0.^.^.^.^.^.^.^.^.^.^.^.^.^.^.0.0.^.^.^.a.+         ",
"          b.^.^.^.0.$ $ $ c.$ $ $ $ $ $ $ $ $ $ $ $ $ $ ^.^.^.^.^.^.^.$ $ $ $ $ $ $ $ $ $ $ d.e.$ $ $ $ f.$ 0.^.^.^.g.          ",
"          h.^.^.^.^.*.*.$ $ $ $ $ $ $ $ $ $ $ $ $ $ $ $ ^.^.^.^.^.^.^.$ $ $ $ $ $ k $ $ $ $ $ $ $ $ $ $ $ $ 0.^.^.^.$           ",
"          i.^.^.^.^.0.0.0.0.0.0.0.0.0.0.0.0.0.0.0.0.^.^.^.^.^.^.^.^.^.^.^.^.^.0.0.0.0.^.^.^.^.^.^.^.^.^.^.0.^.^.^.^.$           ",
"          j.^.^.^.^.^.^.^.^.^.^.^.^.^.^.^.^.0.0.^.^.^.^.^.^.^.^.^.^.^.^.^.^.^.^.0.0.^.^.^.^.^.^.^.^.^.^.^.^.^.^.^.$ $           ",
"          $ $ ^.^.^.^.^.^.^.^.^.^.^.^.^.^.^.0.0.^.^.^.^.^.^.^.^.^.^.^.^.^.^.^.^.0.0.^.^.^.^.^.^.^.^.^.^.^.^.^.^.^.$ + +         ",
"        + + $ ^.^.^.^.^.^.^.^.^.^.^.^.^.^.^.0.0.^.^.^.^.^.^.^.^.^.^.^.^.^.^.^.^.k.0.^.^.^.^.^.^.^.^.^.^.^.^.^.^.^.$ + +         ",
"      + + + $ ^.^.^.^.^.^.^.^.^.^.^.^.^.^.^.$ 0.0.0.^.^.^.^.^.^.^.^.^.^.^.^.^./.0.$ 0.0.0.^.^.^.^.^.^.^.^.^.^.^.$ $ + + +       ",
"      + + + $ ^.^.^.^.^.^.^.^./.^.^.^.^.0.$ $ 0.0.0.^.^.^.^.^.^.^.^.^.^.l.0.0.0.0.$ $ 0.0.^.^.^.^.^.^.^.^.^.^.^.$ + + + +       ",
"    + + + + + $ ^.^.^.^.^.^.^.0./.0.0.0.$ $ 0.0.$ $ ^.^.^.^.^.^.^.^.^.^.0.0.$ $ 0.0.$ $ 0.^.^.^.^.^.^.^.^.^.^.^.$ + + + + +     ",
"    + + + + + $ ^.^.^.^.^.^.^.0.0.0.q.$ $ 0.0.$ $ 0.^.^.^.^.^.^.^.^.^.^.^.^.^.$ $ 0.0.$ $ r.0.^.^.^.^.^.^.^.^.^.$ + + + + +     ",
"    + + + + + + $ ^.^.^.^.^.^.0.t.u.$ $ 0.0.$ $ <.0.^.^.^.^.^.^.^.^.^.^.^.^.^.0.$ $ 0.0.$ $ v.^.^.^.^.^.^.^.^.$ + + + + + +     ",
"          + + + $ ^.^.^.^.^.^.0.0.$ $ 0.0.$ $ w.0.0.^.^.^.^.^.^.0.0.0.0.^.^.^.^.^.$ $ 0.0.$ $ ^.^.^.^.^.^.^.$ + + + +           ",
"                $ $ ^.^.^.^.^.0.0.$ 0.0.$ $ ^.^.^.^.$ $ $ $ -.y.z.$ $ $ $ $ ^.^.^.^.$ $ 0.0.$ ^.^.^.^.^.^.$ $                   ",
"                  $ $ ^.^.^.^.0.0.0.0.$ $ ^.^.^.^.^.0.$ $ $ $ $ $ $ $ $ $ 0.^.^.^.^.0.$ $ 0.0.0.^.^.^.^.^.$                     ",
"                    $ ^.^.^.^.^.^.^.0.0.0.^.^.^.^.^.0.0.$ $ $ $ $ $ $ $ 0.0.^.^.^.^.0.0.0./.0.0.^.^.^.^.$                       ",
"                    $ $ ^.^.^.^.^.^.^.^.^.^.^.^.^.^.^.0.0.$ $ $ D.$ $ 0.0.^.^.^.^.^.0.t.0.}.0.^.^.^.^.$ $                       ",
"                    + + $ ^.^.^.^.^.^.^.^.^.^.^.^.^.^.^.^.0.$ $ $ $ 0.^.^.^.^.^.^.^.^.[.0.^.^.^.^.^.^.$ +                       ",
"                    + + + $ ^.^.^.^.^.^.^.^.^.^.^.^.^.^.^.^.0.$ $ 0.0.^.^.^.^.^.^.^.^.^.^.^.^.^.^.^.$ + +                       ",
"                    + + + + $ ^.^.^.^.^.^.^.^.<.^.^.^.^.^.^.0.0.0.0.^.^.^.^.^.^.^.^.^.^.^.^.^.^.$ $ + + +                       ",
"                    + + + + + $ ^.^.^.^.^.^.^.^.^.^.^.^.^.^.^.^.^.^.^.^.^.^.^.^.^.^.^.^.^./.$ $ + + + + +                       ",
"                    + + + + + + $ $ ^.^.^.^.^.^.^.^.^.^.^.^.^.^.^.^.^.^.^.^.^.^.^.^.^.}.E.$ $ + + + + + +                       ",
"                    + + + + + + + + $ $ ^.^.^.^.^.^.^.^.^.^.^.^.^.^.^.^.^.^.^.^.^.^.^.$ $ + + + + + + + +                       ",
"                                        $ $ ^.^.^.^.^.^.^.^.^.^.^.^.^.^.k.^.^.^.^.$ $                                           ",
"                                          + $ $ $ $ $ ^.^.^.^.^.^.^.^.^.$ $ $ $ $ $ +                                           ",
"                                          + + + + + + $ $ $ $ $ $ $ $ $ $ + + + + + +                                           ",
"                                          + + + + + + + +             + + + + + + + +                                           ",
"                                            + + + + + +                 + + + + + +                                             ",
"                                              + + + +                     + + + +                                               ",
"                                                + +                         + +                                                 ",
"                                                                                                                                "};
